X: 12377
T: Fanad Head
R: jig
M: 6/8
K: Adorian
"Am"EAA cAA|"C"cBA BAG|"Am"EAA cAA|"G"GBd gdB|
"Am"EAA cAA|"C"cBA BAG|"G"edc dcB|"Am"cAA A2z:|
|:"Am"eaa age|"(D)"dcB cBA|"G"Gdd dcB|"C"cde gag|
"Am"eaa age|"(D)"dcB cBA|"G"Gdd dcB|"Am"cAA A2z:|

